icons/book/book-plus.svg

<svg width="14" height="14" viewBox="0 0 14 14" fill="none"
    xmlns="http://www.w3.org/2000/svg">
    <path d="M10.603 2.00977C10.6656 2.02254 10.7232 2.04821 10.7749 2.08203C10.7792 2.08486 10.7834 2.08786 10.7876 2.09082C10.917 2.18129 11.0024 2.33021 11.0024 2.5C11.0024 2.50656 11.0007 2.51303 11.0005 2.51953V9.47949C11.0008 9.48631 11.0024 9.49311 11.0024 9.5C11.0024 9.50656 11.0007 9.51303 11.0005 9.51953V11.4775C11.0008 11.485 11.0024 11.4925 11.0024 11.5C11.0024 11.5318 10.9983 11.5626 10.9927 11.5928C10.9903 11.6051 10.9861 11.6169 10.9829 11.6289C10.978 11.6472 10.9732 11.6652 10.9663 11.6826C10.9615 11.6948 10.9554 11.7061 10.9497 11.7178C10.9421 11.7335 10.9345 11.7489 10.9253 11.7637C10.9183 11.7748 10.9106 11.7853 10.9028 11.7959C10.8919 11.8107 10.8801 11.8244 10.8677 11.8379C10.8595 11.8467 10.8511 11.8551 10.8423 11.8633C10.8298 11.875 10.8169 11.8861 10.8032 11.8965C10.792 11.905 10.7809 11.9134 10.769 11.9209C10.7523 11.9316 10.7343 11.9396 10.7163 11.9482C10.7136 11.9496 10.7113 11.9518 10.7085 11.9531C10.7043 11.955 10.7011 11.9591 10.6968 11.9609H10.6929C10.664 11.9729 10.6344 11.9838 10.603 11.9902L10.5024 12H4.49756C3.66913 12 2.99756 11.3284 2.99756 10.5V3.5C2.99756 2.67157 3.66913 2 4.49756 2H10.5024L10.603 2.00977ZM4.49756 10C4.22142 10 3.99756 10.2239 3.99756 10.5C3.99756 10.7761 4.22142 11 4.49756 11H10.0005V10H4.49756ZM4.49756 3C4.22142 3 3.99756 3.22386 3.99756 3.5V9.08691C4.15409 9.03153 4.32206 9 4.49756 9H10.0005V3H4.49756Z" fill="red"/>
    <path d="M5.5 6.03442H8.5M6.99754 4.49908V7.49908" stroke="green" stroke-linecap="round"/>
</svg>

<svg xmlns="http://www.w3.org/2000/svg" width="14" height="14" fill="none" viewBox="0 0 14 14"><path fill="red" d="M10.603 2.01q.094.02.172.072l.013.009c.129.09.214.24.214.409L11 2.52v6.96l.002.02-.002.02v1.957l.002.023a.5.5 0 0 1-.01.093l-.01.036q-.006.027-.016.054l-.016.035a.5.5 0 0 1-.082.12.5.5 0 0 1-.099.083q-.026.015-.053.027l-.007.005-.012.008h-.004a.5.5 0 0 1-.09.03l-.1.009H4.497a1.5 1.5 0 0 1-1.5-1.5v-7a1.5 1.5 0 0 1 1.5-1.5h6.004zM4.498 10a.5.5 0 0 0 0 1H10v-1zm0-7a.5.5 0 0 0-.5.5v5.587a1.5 1.5 0 0 1 .5-.087H10V3z"/><path stroke="green" stroke-linecap="round" d="M5.5 6.034h3M6.998 4.5v3"/></svg>
